svgs/sharp-light/siren-on.svg

<svg xmlns="http://www.w3.org/2000/svg" viewBox="0 0 640 512"><!--! Font Awesome Pro 6.6.0 by @fontawesome - https://fontawesome.com License - https://fontawesome.com/license (Commercial License) Copyright 2024 Fonticons, Inc. --><path d="M55.2 33.7l64 32 14.3 7.2-14.3 28.6-14.3-7.2-64-32L26.5 55.2 40.8 26.5l14.3 7.2zm544 28.6l-64 32-14.3 7.2L506.5 72.8l14.3-7.2 64-32 14.3-7.2 14.3 28.6-14.3 7.2zM16 192l64 0 16 0 0 32-16 0-64 0L0 224l0-32 16 0zm544 0l64 0 16 0 0 32-16 0-64 0-16 0 0-32 16 0zM492 320l-32.2 0-24-192-231.5 0-24 192L148 320 176 96l288 0 28 224zm-250.1 0l14.2-114 1.8-14 32.2 0-2.2 18L274.1 320l-32.2 0zM512 384l-384 0 0 64 384 0 0-64zM128 352l384 0 32 0 0 32 0 64 0 32-32 0-384 0-32 0 0-32 0-64 0-32 32 0z"/></svg>

<svg xmlns="http://www.w3.org/2000/svg" viewBox="0 0 640 512"><!--! Font Awesome Pro 6.4.0 by @fontawesome - https://fontawesome.com License - https://fontawesome.com/license (Commercial License) Copyright 2023 Fonticons, Inc. --><path d="M55.2 33.7l64 32 14.3 7.2-14.3 28.6-14.3-7.2-64-32L26.5 55.2 40.8 26.5l14.3 7.2zm544 28.6l-64 32-14.3 7.2L506.5 72.8l14.3-7.2 64-32 14.3-7.2 14.3 28.6-14.3 7.2zM16 192H80 96v32H80 16 0V192H16zm544 0h64 16v32H624 560 544V192h16zM492 320H459.8l-24-192H204.2l-24 192H148L176 96H464l28 224zm-250.1 0l14.2-114 1.8-14h32.2l-2.2 18L274.1 320H241.9zM512 384H128v64H512V384zM128 352H512h32v32 64 32H512 128 96V448 384 352h32z"/></svg>
